X:192
T:Rond de Quercy
R:jig
M:6/8
L:1/8
K:Dmin
|: d2e fed | c2d A2A/2A/2 |1 d2e fed | f3  e3  :|2 d2f e2d | c3d3 ::
   a3  def | agf e2f      |1 g2f efg | f2e fed :|2 d2f e2d | c3d3 :|
